X:1
T:Fourths  "Arr. J. Johnson 1988"
M:C
L:1/8
Q:80
C:Johann Pachelbel
S:Kannon
K:HP
[| d4A4|
B4f4|
g4d4|
G4A4|
d4A4|
B4f4|
g4d4|
G4A4|
d4A4|
B4f4|
g4d4|
G4A4| |
d4A4|  !
B4f4|
g4d4|
G4A4|
d4A4|
B4f4|
g4d4|
G4A4|
d4A4|
B4f4|
g4d4|
G4A4| |
d4A4|
B4f4|
g4d4|
G4A4|
d4A4|
B4f4|
g4d4|
G4A4|
d4A4|
B4f4|
g4d4|
G4A4| |
d4A4|  !
B4f4|
g4d4|
G4A4|
d4A4|
B4f4|
g4d4|
G4A4|
d4A4|
B4f4|
g4d4|
G4A4| |
d4A4|
B4f4|
g4d4|
G4A4|
d4A4|
B4f4|
g4d4|
G4A4|
d4A4|
B4f4|
g4d4|
G4A4| |
d4A4|  !
B4f4|
g4d4|
G4A4|
d4A4|
B4f4|
g4d4|
G4A4|
d4A4|
B4f4|
g4d4|
G4A4|
d4A4|
B4f4| |
g4d4|
G4A4|
d4A4|
B4f4|
g4d4|
G4A4|
d4A4|
B4f4|
g4d4|
G4A4|
d4A4|
B4f4|
g4d4|
G4A4| |
d4A4|  !
B4f4|
g4d4|
G4A4|
d4A4|
B4f4|
g4d4|
G4A4|
d4A4|
B4f4|
g4d4|
G4A4|
d4A4|
B4f4| |
g4d4|
G4A4|
d4A4|
B4f4|
g4d4|
G4A4|
d4A4|
B4f4|
g4d4|
G4A4|
d4"hrst"|]

